X:51
T: Gebt uns was, S. 15
N: L0012
O: Luxemburg
S: Die Luxemburger Volkslieder lterer Zeit, Luxemburg 1904 posth.]
N: Heischelied in der Karnevalszeit
R: Kinderlied/Heischelied]
M: 2/4
L: 1/16
K: Bb
 | B2B2B2A2 | B2G2F4 |
G2D2E2E2 | F2F2B,4 |
B3cd2B2 | c2d2e4 |
d3ef2d2 | e2c2B4

@@@ Tune index: 8105
